X:532
T:Hunter's Hill 
C:Joe Buchanan's Scottish Tome - Page 062.1
I:062 1
R:Reel
Z:Carl Allison
L:1/4
M:4/4
K:G G/A/|"G"B2B/c/B/A/|"G"GBDB/c/|"G"dd e/d/B|"G"d3 e/f/|"Em"g2"D"f>g|"C"ed "G"BG|"D"Ad "A7"^ce|"D7"dcBA|
"G"B2B/c/B/A/|"G"GBDB/c/|"G"dd e/d/B|"G"d3 e/f/|"Em"g2"D"f>g|"C"ed "G"BG|"C"AG "D7"ED|"G"G3 B/d/|
"Em"e2e>B|"Em"gfeB|"Em" e>fgf|"Em"e2"A7"fe |"D"d2 d>e|"D"fedf/g/|"A7"agfe|"D"dc"D7"BA|
"G"B2B/c/B/A/|"G"GBDB/c/|"G"dd e/d/B|"G"d3 e/f/|"Em"g2"D"f>g|"C"ed "G"BG|"C"AG "D7"ED|"G"G3||

